app/assets/img/cat-immigration.svg

<svg height="58" viewBox="0 0 57 58" width="57" xmlns="http://www.w3.org/2000/svg"><path d="m50 29h20v4h9v30h-13-2v-4h-34v14h1.297c.388 0 .703.315.703.703v1.594c0 .388-.315.703-.703.703h2c.388 0 .703.315.703.703v2.297h-12v-2.297c0-.388.315-.703.703-.703h2c-.388 0-.703-.315-.703-.703v-1.594c0-.388.315-.703.703-.703h1.297v-44h4v18h20zm20 29.826c0 .096-.078.174-.174.174h.023c.028 0 .049.01675.058.0385-.009-.02175-.03-.0385-.058-.0385h-.023c.096 0 .174-.078.174-.174zm-6 .174h5.826zm6-2h9zm-38-32c0 2.209-1.791 4-4 4s-4-1.791-4-4 1.791-4 4-4 4 1.791 4 4zm3.993 6.279.929 1.883 2.078.302-1.504 1.466.355 2.07-1.858-.977-1.859.977.355-2.07-1.504-1.466 2.078-.302zm8.014-.279.93 1.883 2.078.302-1.504 1.466.355 2.07-1.859-.978-1.858.978.355-2.07-1.504-1.466 2.078-.302zm-8.014 7.279.929 1.883 2.078.302-1.504 1.466.355 2.07-1.858-.977-1.859.977.355-2.07-1.504-1.466 2.078-.302zm8.014-.279.93 1.883 2.078.302-1.504 1.466.355 2.07-1.859-.978-1.858.978.355-2.07-1.504-1.466 2.078-.302z" fill="#fff" transform="translate(-22 -21)"/></svg>

<?xml version="1.0" encoding="UTF-8"?>
<svg width="57px" height="58px" viewBox="0 0 57 58" version="1.1" xmlns="http://www.w3.org/2000/svg" xmlns:xlink="http://www.w3.org/1999/xlink">
    <!-- Generator: Sketch 50.2 (55047) - http://www.bohemiancoding.com/sketch -->
    <title>cat-immigration</title>
    <desc>Created with Sketch.</desc>
    <defs>
        <path d="M50,29 L70,29 L70,33 L79,33 L79,63 L66,63 L64,63 L64,59 L30,59 L30,73 L31.297,73 C31.685,73 32,73.315 32,73.703 L32,75.297 C32,75.685 31.685,76 31.297,76 L33.297,76 C33.685,76 34,76.315 34,76.703 L34,79 L22,79 L22,76.703 C22,76.315 22.315,76 22.703,76 L24.703,76 C24.315,76 24,75.685 24,75.297 L24,73.703 C24,73.315 24.315,73 24.703,73 L26,73 L26,29 L30,29 L30,47 L50,47 L50,29 Z M70,58.826 C70,58.922 69.922,59 69.826,59 L69.849,59 C69.877,59 69.898,59.01675 69.907,59.0385 C69.898,59.01675 69.877,59 69.849,59 L69.826,59 C69.922,59 70,58.922 70,58.826 Z M64,59 L69.826,59 Z M70,57 L79,57 L70,57 Z M32,25 C32,27.209 30.209,29 28,29 C25.791,29 24,27.209 24,25 C24,22.791 25.791,21 28,21 C30.209,21 32,22.791 32,25 Z M35.993,31.279 L36.922,33.162 L39,33.464 L37.496,34.93 L37.851,37 L35.993,36.023 L34.134,37 L34.489,34.93 L32.985,33.464 L35.063,33.162 L35.993,31.279 Z M44.007,31 L44.937,32.883 L47.015,33.185 L45.511,34.651 L45.866,36.721 L44.007,35.743 L42.149,36.721 L42.504,34.651 L41,33.185 L43.078,32.883 L44.007,31 Z M35.993,38.279 L36.922,40.162 L39,40.464 L37.496,41.93 L37.851,44 L35.993,43.023 L34.134,44 L34.489,41.93 L32.985,40.464 L35.063,40.162 L35.993,38.279 Z M44.007,38 L44.937,39.883 L47.015,40.185 L45.511,41.651 L45.866,43.721 L44.007,42.743 L42.149,43.721 L42.504,41.651 L41,40.185 L43.078,39.883 L44.007,38 Z" id="path-1"></path>
    </defs>
    <g id="Page-1" stroke="none" stroke-width="1" fill="none" fill-rule="evenodd">
        <g id="askdarcel/icon/category/immigration" transform="translate(-22.000000, -21.000000)">
            <mask id="mask-2" fill="white">
                <use xlink:href="#path-1"></use>
            </mask>
            <use id="cat-immigration" fill="#FFFFFF" fill-rule="nonzero" xlink:href="#path-1"></use>
        </g>
    </g>
</svg>
